src/img/header/instagram.svg

<svg width="27" height="27" viewBox="0 0 27 27" fill="none" xmlns="http://www.w3.org/2000/svg">
<path d="M19.6913 0H7.30864C3.27859 0 0 3.27859 0 7.30864V19.6915C0 23.7214 3.27859 27 7.30864 27H19.6915C23.7214 27 27 23.7214 27 19.6915V7.30864C27 3.27859 23.7214 0 19.6913 0V0ZM25.4171 19.6915C25.4171 22.8486 22.8486 25.4171 19.6913 25.4171H7.30864C4.15138 25.4171 1.58285 22.8486 1.58285 19.6915V7.30864C1.58285 4.15138 4.15138 1.58285 7.30864 1.58285H19.6915C22.8486 1.58285 25.4171 4.15138 25.4171 7.30864V19.6915Z" fill="black"/>
<path d="M13.4998 6.11719C9.42894 6.11719 6.11719 9.42894 6.11719 13.4998C6.11719 17.5706 9.42894 20.8824 13.4998 20.8824C17.5706 20.8824 20.8824 17.5706 20.8824 13.4998C20.8824 9.42894 17.5706 6.11719 13.4998 6.11719ZM13.4998 19.2995C10.3019 19.2995 7.70004 16.6978 7.70004 13.4998C7.70004 10.3019 10.3019 7.70004 13.4998 7.70004C16.6978 7.70004 19.2995 10.3019 19.2995 13.4998C19.2995 16.6978 16.6978 19.2995 13.4998 19.2995Z" fill="black"/>
<path d="M21.0604 3.49609C19.8574 3.49609 18.8789 4.47477 18.8789 5.67756C18.8789 6.88056 19.8574 7.85924 21.0604 7.85924C22.2634 7.85924 23.2421 6.88056 23.2421 5.67756C23.2421 4.47456 22.2634 3.49609 21.0604 3.49609ZM21.0604 6.27618C20.7304 6.27618 20.4618 6.00756 20.4618 5.67756C20.4618 5.34736 20.7304 5.07895 21.0604 5.07895C21.3906 5.07895 21.6592 5.34736 21.6592 5.67756C21.6592 6.00756 21.3906 6.27618 21.0604 6.27618Z" fill="black"/>
</svg>

<svg width="27" height="27" fill="none" xmlns="http://www.w3.org/2000/svg"><path d="M19.691 0H7.31C3.279 0 0 3.279 0 7.309v12.383C0 23.722 3.279 27 7.309 27h12.383C23.722 27 27 23.721 27 19.692V7.309C27 3.279 23.721 0 19.691 0Zm5.726 19.692a5.732 5.732 0 0 1-5.726 5.725H7.31a5.732 5.732 0 0 1-5.726-5.726V7.31A5.732 5.732 0 0 1 7.31 1.584h12.383a5.732 5.732 0 0 1 5.725 5.726v12.383Z" fill="#000"/><path d="M13.5 6.117c-4.071 0-7.383 3.312-7.383 7.383 0 4.07 3.312 7.382 7.383 7.382 4.07 0 7.382-3.311 7.382-7.382S17.571 6.117 13.5 6.117Zm0 13.182a5.806 5.806 0 0 1-5.8-5.8c0-3.197 2.602-5.799 5.8-5.799s5.8 2.602 5.8 5.8-2.602 5.8-5.8 5.8Zm7.56-15.803a2.184 2.184 0 0 0-2.181 2.182c0 1.203.978 2.181 2.181 2.181a2.184 2.184 0 0 0 2.182-2.181 2.184 2.184 0 0 0-2.182-2.182Zm0 2.78a.6.6 0 1 1 .002-1.199.6.6 0 0 1-.002 1.2Z" fill="#000"/></svg>
